X:536
T:Marmotte op.53 no.7
Z:Jack Campin, http://www.campin.me.uk/
F:Jack Campin's Nine-Note Tunebook
% last edit 03-02-2013
C:Beethoven 
M:6/8
L:1/8
Q:3/8=84
K:GMin
D   |G2G G2G|ABA G2G|A2A BAG|A3 D2
D   |G2G G2G|ABA G2G|A2A D2D|G3 G2
G/A/|B2B c2c|d2d c2c|BAG BAG|A3 A2
G/A/|B2B c2c|d2d c2c|BAG ABA|G3 G2|]

